X:135
T: Die Rabenmutter
N: Q0114B
O: Mitteleuropa, Deutschland / Frankreich, Lothringen, Hambach
R: Ballade, Kinds - Mord, Strafe
M: none
L: 1/16
K: G
D2D2G2 | G4G2G2G2e2 | d4
B2B2BBBB | c2B2A2G2F2A2 | G4z4
B2c2 | A4A2B2c2d2 | A4z2
d2 | d4d4d2d2 | e4d2c2 | B4A4G4

@@@ Tune index: 1428
